X: 04001
T: AL McKINNEY'S JIG
C: Bob McQuillen 24 Sept 78
B: Bob's Note Book 04 #1
%R: jig
Z: 2020 John Chambers <jc:trillian.mit.edu>
M: 6/8
L: 1/8
K: D
FG \
| Afe dcB | A2d Agf | fed ede | f2d AFG |\
| Afe dcB | A2d fag | fgf edc | d3- d :|
|: fg \
| aba fdB | A2f d2f | efg fed | cee efg |\
| aba fdB | AdB | A2f | efg ABc | d3 d :|
%%begintext align
%% For a real good friend, with
%% thanks and appreciation.
%%endtext

%%sep 1 1 500

%%sep 1 1 500

